!!!COM: Paul Hindemith
!!!OTL: [T663_Hin-w99p106m171-177]
**kern	**dynam	**kern	**dynam	**kern	**dynam	**kern	**dynam	**kern	**dynam	**kern	**dynam	**kern	**dynam	**kern	**dynam
*grp:A	*	*grp:A	*	*grp:A	*	*grp:A	*	*grp:A	*	*grp:A	*	*grp:B	*	*grp:B	*
*part8	*part8	*part7	*part7	*part6	*part6	*part5	*part5	*part4	*part4	*part3	*	*part2	*	*part1	*part1
*staff8	*	*staff7	*	*staff6	*	*staff5	*	*staff4	*	*staff3	*	*staff2	*	*staff1	*
*I"Contrabass	*	*I"Violoncello	*	*I"Viola II	*	*I"Viola I	*	*I"Violin	*	*I"Horn in F	*	*I"Bassoon	*	*I"Clarinet in Bb	*
*I'Cb.	*	*I'Vc.	*	*I'Vla.	*	*I'Vla.	*	*I'Vln.	*	*I'Hn.	*	*	*	*I'Cl.	*
*ICstr	*	*ICstr	*	*ICstr	*	*ICstr	*	*ICstr	*	*ICbras	*	*ICww	*	*ICww	*
*Icbass	*	*Icello	*	*Iviola	*	*Iviola	*	*Ivioln	*	*Icor	*	*Ifagot	*	*Iclars	*
*clefF4	*	*clefG2	*	*clefC3	*	*clefG2	*	*clefG2	*	*clefF4	*	*clefF4	*	*clefG2	*
*ITrd7c12	*	*	*	*	*	*	*	*	*	*ITrd-3c-5	*	*	*	*ITrd1c2	*
*k[]	*	*k[]	*	*k[]	*	*k[]	*	*k[]	*	*k[b-]	*	*k[]	*	*k[b-e-]	*
*	*	*	*	*	*	*	*	*	*	*	*	*	*	*	*
*M3/8	*	*M3/8	*	*M3/8	*	*M3/8	*	*M3/8	*	*M3/8	*	*M3/8	*	*M3/8	*
=1	=1	=1	=1	=1	=1	=1	=1	=1	=1	=1	=1	=1	=1	=1	=1
!LO:TX:a:t=[pizz.]	!LO:DY:ed=brack	!	!LO:DY:ed=brack	!LO:TX:a:t=[pizz.]	!	!LO:TX:a:t=[pizz.]	!	!LO:TX:a:t=[pizz.]	!	!	!LO:DY:ed=brack	!	!LO:DY:ed=brack	!LO:TX:t=[[eighth]=184]	!LO:DY:ed=brack
8EE-X)j	mf	4an)j	p	8r	.	8r	.	8r	.	8E-X	mf	8EnL	mf	8eeXL	mf
!	!	!	!	!	!LO:DY:ed=brack	!	!LO:DY:ed=brack	!	!LO:DY:ed=brack	!	!	!	!	!	!
8r	.	.	.	8f#X	p	8ff#X	p	8fff#X	p	8r	.	8BBn)j	.	8bX)j	.
*	*	*clefC4	*	*	*	*	*	*	*	*	*	*	*	*	*
8r	.	(8e	.	8r	.	8r	.	8r	.	8r	.	(16AAL	.	(16aL	.
.	.	.	.	.	.	.	.	.	.	.	.	16C'JJ)	.	16cc'JJ)	.
=2	=2	=2	=2	=2	=2	=2	=2	=2	=2	=2	=2	=2	=2	=2	=2
8EE-X	.	8gL	.	8r	.	8r	.	8r	.	8E-X	.	8AA-XL	.	8a-XL	.
8r	.	8f	.	8e	.	8ee	.	8eee	.	8r	.	(16AAnL	.	(16aL	.
.	.	.	.	.	.	.	.	.	.	.	.	16C'J)	.	16cc'J)	.
8r	.	8eJ)	.	8r	.	8r	.	8r	.	8r	.	8AA-XJ	.	8a-XJ	.
=3	=3	=3	=3	=3	=3	=3	=3	=3	=3	=3	=3	=3	=3	=3	=3
8EE-X	.	(8Bn	.	8r	.	8r	.	8r	.	8E-X	.	(16AAnLL	.	(16aLL	.
.	.	.	.	.	.	.	.	.	.	.	.	16C'J)	.	16cc'J)	.
8r	.	4c)	.	8e-X	.	8ee-X	.	8eee-X	.	8r	.	8AA-X	.	8a-X	.
8r	.	.	.	8r	.	8r	.	8r	.	8r	.	(16AAnL	.	(16aL	.
.	.	.	.	.	.	.	.	.	.	.	.	16C'JJ)	.	16cc'JJ)	.
*	*	*clefF4	*	*	*	*clefC3	*	*	*	*	*	*	*	*	*
=4||	=4||	=4||	=4||	=4||	=4||	=4||	=4||	=4||	=4||	=4||	=4||	=4||	=4||	=4||	=4||
*M2/4	*	*M2/4	*	*M2/4	*	*M2/4	*	*M2/4	*	*M2/4	*	*M2/4	*	*M2/4	*
!LO:TX:a:t=arco	!	!	!	!LO:TX:a:t=arco	!	!LO:TX:a:t=arco	!	!LO:TX:a:t=arco	!	!	!	!	!	!LO:TX:a:B:t=Polka ([quarter] etwa 92)	!
8AAA-X'u	p	8AA-X'u	p	8r	.	8r	.	8r	.	2r	.	8AA-X	.	8a-X	.
8r	.	8r	.	(4E-Xu	mf <	(4c-Xu	mf <	4.A-Xu	mf	.	.	8r	.	8r	.
.	.	.	.	.	.	.	.	.	.	.	.	.	.	(16qqa-/LL	pp
.	.	.	.	.	.	.	.	.	.	.	.	.	.	16qqdd-X/JJ	.
8FFF'u	.	8FF'u	.	.	.	.	.	.	.	.	.	4r	.	8ee-)	.
.	.	.	.	.	.	8qf-X/	[	.	.	.	.	.	.	.	.
8r	.	8r	.	8F)	[	8e-X)	.	.	.	.	.	.	.	8r	.
=5	=5	=5	=5	=5	=5	=5	=5	=5	=5	=5	=5	=5	=5	=5	=5
8EE-X'u	.	8E-X'u	.	8r	.	8r	.	8r	.	2r	.	2r	.	4.r	.
.	.	.	.	.	.	(8qe-X/	.	.	.	.	.	.	.	.	.
8r	.	8r	.	16G-XvLL	.	16d-XvLL)	.	(8A-Xv	.	.	.	.	.	.	.
.	.	.	.	16FJJ	.	16cnJJ	.	.	.	.	.	.	.	.	.
8r	.	8r	.	(8.G-L	<	(4d-	< [	4d-X	< [	.	.	.	.	.	.
.	.	.	.	.	.	.	.	.	.	.	.	.	.	(16qqa-X/LL	.
.	.	.	.	.	.	.	.	.	.	.	.	.	.	16qqdd-X/JJ	.
(8CCu	.	(8Cu	.	.	.	.	.	.	.	.	.	.	.	8ee-)	.
.	.	.	.	16A-XJk	[[	.	.	.	.	.	.	.	.	.	.
=6	=6	=6	=6	=6	=6	=6	=6	=6	=6	=6	=6	=6	=6	=6	=6
8AAA-X)	.	8AA-X)	.	16.B-XLL)	.	16.g-XLL)	.	16.e-XLL)	.	2r	.	2r	.	4r	.
.	.	.	.	(32c-XJJk	.	(32a-XJJk	.	(32f-XJJk	.	.	.	.	.	.	.
8r	.	8r	.	4.B-)	>	4g-)	.	4.e-	>	.	.	.	.	.	.
.	.	.	.	.	.	.	.	.	.	.	.	.	.	(16qqa-X/LL	.
.	.	.	.	.	.	.	.	.	.	.	.	.	.	16qqdd-X/JJ	.
8FFFn'u	.	8FFn'u	.	.	.	.	.	.	.	.	.	.	.	8ee-)	.
8r	.	8r	.	.	.	[8f-X	>	.	.	.	.	.	.	8r	.
=7	=7	=7	=7	=7	=7	=7	=7	=7	=7	=7	=7	=7	=7	=7	=7
8GG-X'u	.	8G-X'u	.	4.A-X	]	8f-L]	]	4.d-X)	]	2r	.	2r	.	8r	.
.	.	.	.	.	.	.	.	.	.	.	.	.	.	(16qqa-X/LL	.
.	.	.	.	.	.	.	.	.	.	.	.	.	.	16qqdd-X/JJ	.
8r	.	8r	.	.	.	16e-XL	.	.	.	.	.	.	.	8ee-)	.
.	.	.	.	.	.	16dnJJ	.	.	.	.	.	.	.	.	.
8r	.	8r	.	.	.	8.e-L	<	.	.	.	.	.	.	4r	.
(8BB-Xui	< [	(8B-Xui	< [	(8B-Xi	< [	.	.	(8e-Xi	< [	.	.	.	.	.	.
.	.	.	.	.	.	(16g-XJki	[[	.	.	.	.	.	.	.	.
=	=	=	=	=	=	=	=	=	=	=	=	=	=	=	=
*-	*-	*-	*-	*-	*-	*-	*-	*-	*-	*-	*-	*-	*-	*-	*-
!!!system-decoration: [(s1,s2,s3)][(s4[(s5,s6)]s7,s8)]
!!!Xfilter: slurcheck
!!!RDF**kern: i = marked note, color="hotpink", text="extra("
!!!RDF**kern: j = marked note, color="magenta", text="extra)"
